Adwaita++/actions/22/node-type-symmetric.svg

<svg height="22" viewBox="0 0 22 22" width="22" xmlns="http://www.w3.org/2000/svg">
  <path d="m15.390625 2.34375a.49918.49918 0 0 0 -.480469.5878906c.218 1.5948-.142812 3.8988282-1.257812 5.7363282-.636 1.0488999-1.506344 1.9433902-2.652344 2.5253902v-2.193359h-6v2.275391c-1.2181-.577-2.1226375-1.507116-2.7734375-2.603516-1.0896-1.8354-1.42023437-4.1378219-1.1777344-5.7324219a.49918.49918 0 0 0 -.52343748-.5800781.49918.49918 0 0 0 -.46289062.4296875c-.28265 1.8583.0775075 4.323325 1.3046875 6.390625.6862 1.1562995 1.6986687 2.1432655 2.9804687 2.8222655h-1.4335937a1.5 1.5 0 0 0 -1.4140625-1.001953 1.5 1.5 0 0 0 -1.5 1.5 1.5 1.5 0 0 0 1.5 1.5 1.5 1.5 0 0 0 1.4121094-1h2.0878906v2h6v-2h2.087891a1.5 1.5 0 0 0 1.412109 1 1.5 1.5 0 0 0 1.5-1.5 1.5 1.5 0 0 0 -1.5-1.5 1.5 1.5 0 0 0 -1.414062 1.001953h-1.591797c1.289-.678 2.310718-1.661906 3.011718-2.8164061 1.253-2.0651 1.646579-4.5304719 1.392579-6.3886719a.49918.49918 0 0 0 -.507813-.453125z" fill="#444" transform="translate(3 3)"/>
</svg>

<svg xmlns="http://www.w3.org/2000/svg" width="22" height="22" viewBox="0 0 22 22">
 <defs>
  <style id="current-color-scheme" type="text/css">
   .ColorScheme-Text { color:#444444; } .ColorScheme-Highlight { color:#4285f4; }
  </style>
 </defs>
 <path style="fill:currentColor" class="ColorScheme-Text" d="M 15.390625 2.34375 A 0.49918 0.49918 0 0 0 14.910156 2.9316406 C 15.128156 4.5264406 14.767344 6.8304688 13.652344 8.6679688 C 13.016344 9.7168687 12.146 10.611359 11 11.193359 L 11 9 L 5 9 L 5 11.275391 C 3.7819 10.698391 2.8773625 9.768275 2.2265625 8.671875 C 1.1369625 6.836475 0.80632813 4.5340531 1.0488281 2.9394531 A 0.49918 0.49918 0 0 0 0.52539062 2.359375 A 0.49918 0.49918 0 0 0 0.0625 2.7890625 C -0.22015 4.6473625 0.1400075 7.1123875 1.3671875 9.1796875 C 2.0533875 10.335987 3.0658562 11.322953 4.3476562 12.001953 L 2.9140625 12.001953 A 1.5 1.5 0 0 0 1.5 11 A 1.5 1.5 0 0 0 0 12.5 A 1.5 1.5 0 0 0 1.5 14 A 1.5 1.5 0 0 0 2.9121094 13 L 5 13 L 5 15 L 11 15 L 11 13 L 13.087891 13 A 1.5 1.5 0 0 0 14.5 14 A 1.5 1.5 0 0 0 16 12.5 A 1.5 1.5 0 0 0 14.5 11 A 1.5 1.5 0 0 0 13.085938 12.001953 L 11.494141 12.001953 C 12.783141 11.323953 13.804859 10.340047 14.505859 9.1855469 C 15.758859 7.1204469 16.152438 4.655075 15.898438 2.796875 A 0.49918 0.49918 0 0 0 15.390625 2.34375 z" transform="translate(3 3)"/>
</svg>
